packages/components/src/telekom/icons/weather/heavy-snow/default.svg

<?xml version="1.0" encoding="UTF-8"?>
<svg width="24px" height="24px" viewBox="0 0 24 24" version="1.1" xmlns="http://www.w3.org/2000/svg" xmlns:xlink="http://www.w3.org/1999/xlink">
    <title>icon/weather/heavy-snow/default</title>
    <g id="icon/weather/heavy-snow/default" stroke="none" stroke-width="1" fill="none" fill-rule="evenodd">
        <path d="M8.3505,17.807 L9.6495,18.557 L8.8165,20 L10.5,20 L10.5,21.5 L8.7815,21.5 L9.6495,23.0035 L8.3505,23.7535 L7.5,22.28 L6.6495,23.7535 L5.3505,23.0035 L6.2185,21.5 L4.5,21.5 L4.5,20 L6.1835,20 L5.3505,18.557 L6.6495,17.807 L7.5,19.2805 L8.3505,17.807 Z M14.8505,13.307 L16.1495,14.057 L15.3165,15.5 L17,15.5 L17,17 L15.2815,17 L16.1495,18.5035 L14.8505,19.2535 L14,17.78 L13.1495,19.2535 L11.8505,18.5035 L12.7185,17 L11,17 L11,15.5 L12.6835,15.5 L11.8505,14.057 L13.1495,13.307 L14,14.7805 L14.8505,13.307 Z M13.5115,0.5645 C16.7275,0.5645 19.5605,2.5685 20.661,5.584 C22.548,6.578 23.75,8.555 23.7495003,10.711 C23.7495003,13.6555128 21.5535947,16.0897364 18.7241638,16.4499033 L18.4995,16.474 L18.4995,14.967 C20.6075,14.716 22.2495,12.9045 22.2495,10.711 C22.2495,9.10308696 21.3482902,7.62921172 19.9361892,6.89804397 L19.7405,6.803 L19.4375,6.665 L19.3365,6.3475 C18.521,3.7855 16.18,2.064 13.5115,2.064 C12.0911875,2.064 10.7218516,2.56453711 9.62431738,3.47868201 L9.4085,3.667 L9.08,3.968 L8.658,3.8225 C8.3185,3.7055 7.9695,3.646 7.6215,3.646 C6.4175,3.646 5.366,4.318 4.816,5.3105 C4.41788235,6.02873529 4.38873356,6.71483218 4.41077468,7.15107602 L4.442,7.5505 L3.9765,7.76 C2.624,8.3685 1.75,9.725 1.75,11.2155 C1.75,13.2367969 3.32851758,14.8934956 5.30729541,14.9950654 L5.5,15 L9.5,15 L9.5,16.5 L5.5,16.5 C2.605,16.5 0.25,14.1295 0.25,11.2155 C0.25,9.3035 1.282,7.5495 2.917,6.6175 C3.0565,4.128 5.1135,2.146 7.6215,2.146 C7.9905,2.146 8.3585,2.191 8.7215,2.2795 C10.0785,1.1705 11.7635,0.5645 13.5115,0.5645 Z" id="Shape" fill="#262626" fill-rule="nonzero"></path>
    </g>
</svg>

<svg width="24" height="24" xmlns="http://www.w3.org/2000/svg"><path d="M8.35 17.807l1.3.75L8.816 20H10.5v1.5H8.781l.868 1.503-1.298.75L7.5 22.28l-.85 1.473-1.3-.75.869-1.503H4.5V20h1.684l-.833-1.443 1.298-.75.851 1.474.85-1.474zm6.5-4.5l1.3.75-.833 1.443H17V17h-1.719l.868 1.503-1.299.75L14 17.78l-.85 1.473-1.3-.75L12.72 17H11v-1.5h1.684l-.833-1.443 1.298-.75L14 14.78l.85-1.473zM13.512.565a7.596 7.596 0 017.149 5.019 5.803 5.803 0 013.089 5.127c0 2.945-2.196 5.379-5.026 5.739l-.224.024v-1.507c2.108-.251 3.75-2.063 3.75-4.256a4.3 4.3 0 00-2.314-3.813l-.195-.095-.303-.138-.101-.317c-.816-2.563-3.157-4.284-5.825-4.284-1.42 0-2.79.5-3.888 1.415l-.216.188-.328.301-.422-.146a3.178 3.178 0 00-1.036-.176 3.21 3.21 0 00-2.806 1.665 3.382 3.382 0 00-.405 1.84l.031.4-.466.209a3.791 3.791 0 00-2.226 3.456c0 2.02 1.579 3.677 3.557 3.78L5.5 15h4v1.5h-4c-2.895 0-5.25-2.37-5.25-5.284a5.299 5.299 0 012.667-4.598c.14-2.49 2.197-4.472 4.705-4.472.369 0 .736.045 1.1.134a7.558 7.558 0 014.79-1.715z" fill="#000" fill-rule="evenodd"/></svg>
